svgs/thin/notebook.svg

<svg xmlns="http://www.w3.org/2000/svg" viewBox="0 0 512 512"><!--! Font Awesome Pro 6.3.0 by @fontawesome - https://fontawesome.com License - https://fontawesome.com/license (Commercial License) Copyright 2023 Fonticons, Inc. --><path d="M416 0H128C92.65 0 64 28.65 64 64v56H8C3.584 120 0 123.6 0 128c0 4.416 3.584 8 8 8H64v112H8C3.584 248 0 251.6 0 256c0 4.416 3.584 8 8 8H64v112H8C3.584 376 0 379.6 0 384c0 4.416 3.584 8 8 8H64V448c0 35.35 28.65 64 64 64h288c35.35 0 64-28.65 64-64V64C480 28.65 451.3 0 416 0zM128 496c-26.47 0-48-21.53-48-48v-56h40C124.4 392 128 388.4 128 384c0-4.418-3.584-8-8-8H80v-112h40C124.4 264 128 260.4 128 256c0-4.418-3.584-8-8-8H80v-112h40C124.4 136 128 132.4 128 128c0-4.418-3.584-8-8-8H80V64c0-26.47 21.53-48 48-48h64v480H128zM464 448c0 26.47-21.53 48-48 48H208v-480H416c26.47 0 48 21.53 48 48V448z"/></svg>

<svg xmlns="http://www.w3.org/2000/svg" viewBox="0 0 512 512"><!--! Font Awesome Pro 6.4.0 by @fontawesome - https://fontawesome.com License - https://fontawesome.com/license (Commercial License) Copyright 2023 Fonticons, Inc. --><path d="M208 16H416c26.5 0 48 21.5 48 48V448c0 26.5-21.5 48-48 48H208V16zm-16 0V496H128c-26.5 0-48-21.5-48-48V392h40c4.4 0 8-3.6 8-8s-3.6-8-8-8H80V264h40c4.4 0 8-3.6 8-8s-3.6-8-8-8H80V136h40c4.4 0 8-3.6 8-8s-3.6-8-8-8H80V64c0-26.5 21.5-48 48-48h64zM64 392v56c0 35.3 28.7 64 64 64H416c35.3 0 64-28.7 64-64V64c0-35.3-28.7-64-64-64H128C92.7 0 64 28.7 64 64v56H8c-4.4 0-8 3.6-8 8s3.6 8 8 8H64V248H8c-4.4 0-8 3.6-8 8s3.6 8 8 8H64V376H8c-4.4 0-8 3.6-8 8s3.6 8 8 8H64z"/></svg>
